public/images/database.svg

<svg width="96" height="96" viewBox="0 0 96 96" fill="none" xmlns="http://www.w3.org/2000/svg">
<mask id="mask0_1960_21627" style="mask-type:alpha" maskUnits="userSpaceOnUse" x="22" y="57" width="68" height="32">
<path d="M22 57V77.6316C22 83.8842 37.3 89 56 89C74.7 89 90 83.8842 90 77.6316V57" fill="#3DB8F5"/>
</mask>
<g mask="url(#mask0_1960_21627)">
<path d="M29 57V77.6316C29 83.8842 44.3 89 63 89C81.7 89 97 83.8842 97 77.6316V57" fill="#3DB8F5"/>
</g>
<mask id="path-3-inside-1_1960_21627" fill="white">
<path d="M22 57V77.6316C22 83.8842 37.3 89 56 89C74.7 89 90 83.8842 90 77.6316V57"/>
</mask>
<path d="M25 57C25 55.3431 23.6569 54 22 54C20.3431 54 19 55.3431 19 57H25ZM93 57C93 55.3431 91.6569 54 90 54C88.3431 54 87 55.3431 87 57H93ZM19 57V77.6316H25V57H19ZM19 77.6316C19 80.5133 20.7637 82.779 22.8274 84.4032C24.928 86.0564 27.7808 87.4172 31.0362 88.5057C37.5783 90.6932 46.4137 92 56 92V86C46.8863 86 38.7217 84.749 32.9388 82.8154C30.0317 81.8433 27.8907 80.7528 26.5382 79.6883C25.1488 78.5947 25 77.8762 25 77.6316H19ZM56 92C65.5863 92 74.4217 90.6932 80.9638 88.5057C84.2192 87.4172 87.072 86.0564 89.1726 84.4032C91.2363 82.779 93 80.5133 93 77.6316H87C87 77.8762 86.8512 78.5947 85.4618 79.6883C84.1093 80.7528 81.9683 81.8433 79.0612 82.8154C73.2783 84.749 65.1137 86 56 86V92ZM93 77.6316V57H87V77.6316H93Z" fill="#172136" mask="url(#path-3-inside-1_1960_21627)"/>
<path d="M88.5 57.5C88.5 58.4407 87.9385 59.5676 86.3913 60.8048C84.8587 62.0304 82.5487 63.2003 79.561 64.2108C73.6008 66.2268 65.2706 67.5 56 67.5C46.7294 67.5 38.3992 66.2268 32.439 64.2108C29.4513 63.2003 27.1413 62.0304 25.6087 60.8048C24.0615 59.5676 23.5 58.4407 23.5 57.5C23.5 56.5593 24.0615 55.4324 25.6087 54.1952C27.1413 52.9696 29.4513 51.7997 32.439 50.7892C38.3992 48.7732 46.7294 47.5 56 47.5C65.2706 47.5 73.6008 48.7732 79.561 50.7892C82.5487 51.7997 84.8587 52.9696 86.3913 54.1952C87.9385 55.4324 88.5 56.5593 88.5 57.5Z" fill="white" stroke="#172136" stroke-width="3" stroke-linecap="round" stroke-linejoin="round"/>
<mask id="mask1_1960_21627" style="mask-type:alpha" maskUnits="userSpaceOnUse" x="6" y="37" width="68" height="32">
<path d="M6 37V57.6316C6 63.8842 21.3 69 40 69C58.7 69 74 63.8842 74 57.6316V37" fill="#3DB8F5"/>
</mask>
<g mask="url(#mask1_1960_21627)">
<path d="M13 37V57.6316C13 63.8842 28.3 69 47 69C65.7 69 81 63.8842 81 57.6316V37" fill="#3DB8F5"/>
</g>
<mask id="path-8-inside-2_1960_21627" fill="white">
<path d="M6 37V57.6316C6 63.8842 21.3 69 40 69C58.7 69 74 63.8842 74 57.6316V37"/>
</mask>
<path d="M9 37C9 35.3431 7.65685 34 6 34C4.34315 34 3 35.3431 3 37H9ZM77 37C77 35.3431 75.6569 34 74 34C72.3431 34 71 35.3431 71 37H77ZM3 37V57.6316H9V37H3ZM3 57.6316C3 60.5133 4.76374 62.779 6.82741 64.4032C8.92804 66.0564 11.7808 67.4172 15.0362 68.5057C21.5783 70.6932 30.4137 72 40 72V66C30.8863 66 22.7217 64.749 16.9388 62.8154C14.0317 61.8433 11.8907 60.7528 10.5382 59.6883C9.14876 58.5947 9 57.8762 9 57.6316H3ZM40 72C49.5863 72 58.4217 70.6932 64.9638 68.5057C68.2192 67.4172 71.072 66.0564 73.1726 64.4032C75.2363 62.779 77 60.5133 77 57.6316H71C71 57.8762 70.8512 58.5947 69.4618 59.6883C68.1093 60.7528 65.9683 61.8433 63.0612 62.8154C57.2783 64.749 49.1137 66 40 66V72ZM77 57.6316V37H71V57.6316H77Z" fill="#172136" mask="url(#path-8-inside-2_1960_21627)"/>
<path d="M72.5 37.5C72.5 38.4407 71.9385 39.5676 70.3913 40.8048C68.8587 42.0304 66.5487 43.2003 63.561 44.2108C57.6008 46.2268 49.2706 47.5 40 47.5C30.7294 47.5 22.3992 46.2268 16.439 44.2108C13.4513 43.2003 11.1413 42.0304 9.6087 40.8048C8.06154 39.5676 7.5 38.4407 7.5 37.5C7.5 36.5593 8.06154 35.4324 9.6087 34.1952C11.1413 32.9696 13.4513 31.7997 16.439 30.7892C22.3992 28.7732 30.7294 27.5 40 27.5C49.2706 27.5 57.6008 28.7732 63.561 30.7892C66.5487 31.7997 68.8587 32.9696 70.3913 34.1952C71.9385 35.4324 72.5 36.5593 72.5 37.5Z" fill="white" stroke="#172136" stroke-width="3" stroke-linecap="round" stroke-linejoin="round"/>
<path d="M22 17V37.6316C22 43.8842 37.3 49 56 49C74.7 49 90 43.8842 90 37.6316V17" fill="white"/>
<mask id="mask2_1960_21627" style="mask-type:alpha" maskUnits="userSpaceOnUse" x="22" y="17" width="68" height="32">
<path d="M22 17V37.6316C22 43.8842 37.3 49 56 49C74.7 49 90 43.8842 90 37.6316V17" fill="#3DB8F5"/>
</mask>
<g mask="url(#mask2_1960_21627)">
<path d="M29 17V37.6316C29 43.8842 44.3 49 63 49C81.7 49 97 43.8842 97 37.6316V17" fill="#3DB8F5"/>
</g>
<mask id="path-14-inside-3_1960_21627" fill="white">
<path d="M22 17V37.6316C22 43.8842 37.3 49 56 49C74.7 49 90 43.8842 90 37.6316V17"/>
</mask>
<path d="M25 17C25 15.3431 23.6569 14 22 14C20.3431 14 19 15.3431 19 17H25ZM93 17C93 15.3431 91.6569 14 90 14C88.3431 14 87 15.3431 87 17H93ZM19 17V37.6316H25V17H19ZM19 37.6316C19 40.5133 20.7637 42.779 22.8274 44.4032C24.928 46.0564 27.7808 47.4172 31.0362 48.5057C37.5783 50.6932 46.4137 52 56 52V46C46.8863 46 38.7217 44.749 32.9388 42.8154C30.0317 41.8433 27.8907 40.7528 26.5382 39.6883C25.1488 38.5947 25 37.8762 25 37.6316H19ZM56 52C65.5863 52 74.4217 50.6932 80.9638 48.5057C84.2192 47.4172 87.072 46.0564 89.1726 44.4032C91.2363 42.779 93 40.5133 93 37.6316H87C87 37.8762 86.8512 38.5947 85.4618 39.6883C84.1093 40.7528 81.9683 41.8433 79.0612 42.8154C73.2783 44.749 65.1137 46 56 46V52ZM93 37.6316V17H87V37.6316H93Z" fill="#172136" mask="url(#path-14-inside-3_1960_21627)"/>
<path d="M88.5 17.5C88.5 18.4407 87.9385 19.5676 86.3913 20.8048C84.8587 22.0304 82.5487 23.2003 79.561 24.2108C73.6008 26.2268 65.2706 27.5 56 27.5C46.7294 27.5 38.3992 26.2268 32.439 24.2108C29.4513 23.2003 27.1413 22.0304 25.6087 20.8048C24.0615 19.5676 23.5 18.4407 23.5 17.5C23.5 16.5593 24.0615 15.4324 25.6087 14.1952C27.1413 12.9696 29.4513 11.7997 32.439 10.7892C38.3992 8.77323 46.7294 7.5 56 7.5C65.2706 7.5 73.6008 8.77323 79.561 10.7892C82.5487 11.7997 84.8587 12.9696 86.3913 14.1952C87.9385 15.4324 88.5 16.5593 88.5 17.5Z" fill="white" stroke="#172136" stroke-width="3" stroke-linecap="round" stroke-linejoin="round"/>
</svg>

<svg width="96" height="96" fill="none" xmlns="http://www.w3.org/2000/svg"><mask id="a" style="mask-type:alpha" maskUnits="userSpaceOnUse" x="22" y="57" width="68" height="32"><path d="M22 57v20.632C22 83.884 37.3 89 56 89s34-5.116 34-11.368V57" fill="#3DB8F5"/></mask><g mask="url(#a)"><path d="M29 57v20.632C29 83.884 44.3 89 63 89s34-5.116 34-11.368V57" fill="#3DB8F5"/></g><mask id="b" fill="#fff"><path d="M22 57v20.632C22 83.884 37.3 89 56 89s34-5.116 34-11.368V57"/></mask><path d="M25 57a3 3 0 1 0-6 0h6Zm68 0a3 3 0 1 0-6 0h6Zm-74 0v20.632h6V57h-6Zm0 20.632c0 2.881 1.764 5.147 3.827 6.771 2.101 1.653 4.954 3.014 8.21 4.103C37.577 90.693 46.413 92 56 92v-6c-9.114 0-17.278-1.251-23.061-3.185-2.907-.972-5.048-2.062-6.4-3.127C25.148 78.595 25 77.876 25 77.632h-6ZM56 92c9.586 0 18.422-1.307 24.964-3.494 3.255-1.089 6.108-2.45 8.209-4.103C91.236 82.78 93 80.513 93 77.632h-6c0 .244-.149.963-1.538 2.056-1.353 1.065-3.494 2.155-6.4 3.127C73.277 84.75 65.113 86 56 86v6Zm37-14.368V57h-6v20.632h6Z" fill="#172136" mask="url(#b)"/><path d="M88.5 57.5c0 .94-.561 2.068-2.109 3.305-1.532 1.225-3.842 2.395-6.83 3.406C73.601 66.227 65.271 67.5 56 67.5c-9.27 0-17.6-1.273-23.561-3.29-2.988-1.01-5.298-2.18-6.83-3.405C24.06 59.568 23.5 58.44 23.5 57.5c0-.94.561-2.068 2.109-3.305 1.532-1.225 3.842-2.395 6.83-3.406C38.399 48.773 46.729 47.5 56 47.5c9.27 0 17.6 1.273 23.561 3.29 2.988 1.01 5.298 2.18 6.83 3.405C87.938 55.432 88.5 56.56 88.5 57.5Z" fill="#fff" stroke="#172136" stroke-width="3" stroke-linecap="round" stroke-linejoin="round"/><mask id="c" style="mask-type:alpha" maskUnits="userSpaceOnUse" x="6" y="37" width="68" height="32"><path d="M6 37v20.632C6 63.884 21.3 69 40 69s34-5.116 34-11.368V37" fill="#3DB8F5"/></mask><g mask="url(#c)"><path d="M13 37v20.632C13 63.884 28.3 69 47 69s34-5.116 34-11.368V37" fill="#3DB8F5"/></g><mask id="d" fill="#fff"><path d="M6 37v20.632C6 63.884 21.3 69 40 69s34-5.116 34-11.368V37"/></mask><path d="M9 37a3 3 0 1 0-6 0h6Zm68 0a3 3 0 1 0-6 0h6ZM3 37v20.632h6V37H3Zm0 20.632c0 2.881 1.764 5.147 3.827 6.771 2.101 1.653 4.954 3.014 8.21 4.103C21.577 70.693 30.413 72 40 72v-6c-9.114 0-17.278-1.251-23.061-3.185-2.907-.972-5.048-2.062-6.4-3.127C9.148 58.595 9 57.876 9 57.632H3ZM40 72c9.586 0 18.422-1.307 24.964-3.494 3.255-1.089 6.108-2.45 8.209-4.103C75.236 62.78 77 60.513 77 57.632h-6c0 .244-.149.963-1.538 2.056-1.353 1.065-3.494 2.155-6.4 3.127C57.277 64.75 49.113 66 40 66v6Zm37-14.368V37h-6v20.632h6Z" fill="#172136" mask="url(#d)"/><path d="M72.5 37.5c0 .94-.561 2.068-2.109 3.305-1.532 1.225-3.842 2.395-6.83 3.406C57.601 46.227 49.271 47.5 40 47.5c-9.27 0-17.6-1.273-23.561-3.29-2.988-1.01-5.298-2.18-6.83-3.405C8.062 39.568 7.5 38.44 7.5 37.5c0-.94.562-2.068 2.109-3.305 1.532-1.225 3.842-2.395 6.83-3.406C22.399 28.773 30.729 27.5 40 27.5c9.27 0 17.6 1.273 23.561 3.29 2.988 1.01 5.298 2.18 6.83 3.405C71.938 35.432 72.5 36.56 72.5 37.5Z" fill="#fff" stroke="#172136" stroke-width="3" stroke-linecap="round" stroke-linejoin="round"/><path d="M22 17v20.632C22 43.884 37.3 49 56 49s34-5.116 34-11.368V17" fill="#fff"/><mask id="e" style="mask-type:alpha" maskUnits="userSpaceOnUse" x="22" y="17" width="68" height="32"><path d="M22 17v20.632C22 43.884 37.3 49 56 49s34-5.116 34-11.368V17" fill="#3DB8F5"/></mask><g mask="url(#e)"><path d="M29 17v20.632C29 43.884 44.3 49 63 49s34-5.116 34-11.368V17" fill="#3DB8F5"/></g><mask id="f" fill="#fff"><path d="M22 17v20.632C22 43.884 37.3 49 56 49s34-5.116 34-11.368V17"/></mask><path d="M25 17a3 3 0 1 0-6 0h6Zm68 0a3 3 0 1 0-6 0h6Zm-74 0v20.632h6V17h-6Zm0 20.632c0 2.881 1.764 5.147 3.827 6.771 2.101 1.653 4.954 3.014 8.21 4.103C37.577 50.693 46.413 52 56 52v-6c-9.114 0-17.278-1.251-23.061-3.185-2.907-.972-5.048-2.062-6.4-3.127C25.148 38.595 25 37.876 25 37.632h-6ZM56 52c9.586 0 18.422-1.307 24.964-3.494 3.255-1.089 6.108-2.45 8.209-4.103C91.236 42.78 93 40.513 93 37.632h-6c0 .244-.149.963-1.538 2.056-1.353 1.065-3.494 2.155-6.4 3.127C73.277 44.75 65.113 46 56 46v6Zm37-14.368V17h-6v20.632h6Z" fill="#172136" mask="url(#f)"/><path d="M88.5 17.5c0 .94-.561 2.068-2.109 3.305-1.532 1.225-3.842 2.395-6.83 3.406C73.601 26.227 65.271 27.5 56 27.5c-9.27 0-17.6-1.273-23.561-3.29-2.988-1.01-5.298-2.18-6.83-3.405C24.06 19.568 23.5 18.44 23.5 17.5c0-.94.561-2.068 2.109-3.305 1.532-1.225 3.842-2.395 6.83-3.406C38.399 8.773 46.729 7.5 56 7.5c9.27 0 17.6 1.273 23.561 3.29 2.988 1.01 5.298 2.18 6.83 3.405C87.938 15.432 88.5 16.56 88.5 17.5Z" fill="#fff" stroke="#172136" stroke-width="3" stroke-linecap="round" stroke-linejoin="round"/></svg>
